icons/maximize.svg

<svg xmlns="http://www.w3.org/2000/svg" width="96" height="96"><path d="M32 8c1.1 0 2.1.4 2.8 1.2.8.7 1.2 1.7 1.2 2.8 0 1.1-.4 2.1-1.2 2.8-.7.8-1.7 1.2-2.8 1.2H12v20c0 1.1-.4 2.1-1.2 2.8-.7.8-1.7 1.2-2.8 1.2-1.1 0-2.1-.4-2.8-1.2C4.4 38.1 4 37.1 4 36V16c0-2.1.8-4.2 2.3-5.7C7.8 8.8 9.9 8 12 8h20zm32 8c-1.1 0-2.1-.4-2.8-1.2-.8-.7-1.2-1.7-1.2-2.8 0-1.1.4-2.1 1.2-2.8.7-.8 1.7-1.2 2.8-1.2h20c2.1 0 4.2.8 5.7 2.3 1.5 1.5 2.3 3.6 2.3 5.7v20c0 1.1-.4 2.1-1.2 2.8-.7.8-1.7 1.2-2.8 1.2-1.1 0-2.1-.4-2.8-1.2-.8-.7-1.2-1.7-1.2-2.8V16H64zm20 44c0-1.1.4-2.1 1.2-2.8.7-.8 1.7-1.2 2.8-1.2 1.1 0 2.1.4 2.8 1.2.8.7 1.2 1.7 1.2 2.8v20c0 2.1-.8 4.2-2.3 5.7-1.5 1.5-3.6 2.3-5.7 2.3H64c-1.1 0-2.1-.4-2.8-1.2-.8-.7-1.2-1.7-1.2-2.8 0-1.1.4-2.1 1.2-2.8.7-.8 1.7-1.2 2.8-1.2h20V60zM4 60c0-1.1.4-2.1 1.2-2.8.7-.8 1.7-1.2 2.8-1.2 1.1 0 2.1.4 2.8 1.2.8.7 1.2 1.7 1.2 2.8v20h20c1.1 0 2.1.4 2.8 1.2.8.7 1.2 1.7 1.2 2.8 0 1.1-.4 2.1-1.2 2.8-.7.8-1.7 1.2-2.8 1.2H12c-2.1 0-4.2-.8-5.7-2.3C4.8 84.2 4 82.1 4 80V60z" fill-rule="evenodd" fill="#454545"/></svg>

<?xml version="1.0" standalone="no"?><!-- Generator: Gravit.io --><svg xmlns="http://www.w3.org/2000/svg" xmlns:xlink="http://www.w3.org/1999/xlink" width="96" height="96"><path d=" M 32 8 C 33.1 8 34.1 8.4 34.8 9.2 C 35.6 9.9 36 10.9 36 12 C 36 13.1 35.6 14.1 34.8 14.8 C 34.1 15.6 33.1 16 32 16 L 12 16 L 12 36 C 12 37.1 11.6 38.1 10.8 38.8 C 10.1 39.6 9.1 40 8 40 C 6.9 40 5.9 39.6 5.2 38.8 C 4.4 38.1 4 37.1 4 36 L 4 16 C 4 13.9 4.8 11.8 6.3 10.3 C 7.8 8.8 9.9 8 12 8 L 32 8 Z  M 64 16 C 62.9 16 61.9 15.6 61.2 14.8 C 60.4 14.1 60 13.1 60 12 C 60 10.9 60.4 9.9 61.2 9.2 C 61.9 8.4 62.9 8 64 8 L 84 8 C 86.1 8 88.2 8.8 89.7 10.3 C 91.2 11.8 92 13.9 92 16 L 92 36 C 92 37.1 91.6 38.1 90.8 38.8 C 90.1 39.6 89.1 40 88 40 C 86.9 40 85.9 39.6 85.2 38.8 C 84.4 38.1 84 37.1 84 36 L 84 16 L 64 16 Z  M 84 60 C 84 58.9 84.4 57.9 85.2 57.2 C 85.9 56.4 86.9 56 88 56 C 89.1 56 90.1 56.4 90.8 57.2 C 91.6 57.9 92 58.9 92 60 L 92 80 C 92 82.1 91.2 84.2 89.7 85.7 C 88.2 87.2 86.1 88 84 88 L 64 88 C 62.9 88 61.9 87.6 61.2 86.8 C 60.4 86.1 60 85.1 60 84 C 60 82.9 60.4 81.9 61.2 81.2 C 61.9 80.4 62.9 80 64 80 L 84 80 L 84 60 Z  M 4 60 C 4 58.9 4.4 57.9 5.2 57.2 C 5.9 56.4 6.9 56 8 56 C 9.1 56 10.1 56.4 10.8 57.2 C 11.6 57.9 12 58.9 12 60 L 12 80 L 32 80 C 33.1 80 34.1 80.4 34.8 81.2 C 35.6 81.9 36 82.9 36 84 C 36 85.1 35.6 86.1 34.8 86.8 C 34.1 87.6 33.1 88 32 88 L 12 88 C 9.9 88 7.8 87.2 6.3 85.7 C 4.8 84.2 4 82.1 4 80 L 4 60 Z " fill-rule="evenodd" fill="#454545" stroke="none"/><mask id="_mask_y6ZFa1JVhjR0g46nv5fmIpV4anAG2mXj"><path d=" M 32 8 C 33.1 8 34.1 8.4 34.8 9.2 C 35.6 9.9 36 10.9 36 12 C 36 13.1 35.6 14.1 34.8 14.8 C 34.1 15.6 33.1 16 32 16 L 12 16 L 12 36 C 12 37.1 11.6 38.1 10.8 38.8 C 10.1 39.6 9.1 40 8 40 C 6.9 40 5.9 39.6 5.2 38.8 C 4.4 38.1 4 37.1 4 36 L 4 16 C 4 13.9 4.8 11.8 6.3 10.3 C 7.8 8.8 9.9 8 12 8 L 32 8 Z  M 64 16 C 62.9 16 61.9 15.6 61.2 14.8 C 60.4 14.1 60 13.1 60 12 C 60 10.9 60.4 9.9 61.2 9.2 C 61.9 8.4 62.9 8 64 8 L 84 8 C 86.1 8 88.2 8.8 89.7 10.3 C 91.2 11.8 92 13.9 92 16 L 92 36 C 92 37.1 91.6 38.1 90.8 38.8 C 90.1 39.6 89.1 40 88 40 C 86.9 40 85.9 39.6 85.2 38.8 C 84.4 38.1 84 37.1 84 36 L 84 16 L 64 16 Z  M 84 60 C 84 58.9 84.4 57.9 85.2 57.2 C 85.9 56.4 86.9 56 88 56 C 89.1 56 90.1 56.4 90.8 57.2 C 91.6 57.9 92 58.9 92 60 L 92 80 C 92 82.1 91.2 84.2 89.7 85.7 C 88.2 87.2 86.1 88 84 88 L 64 88 C 62.9 88 61.9 87.6 61.2 86.8 C 60.4 86.1 60 85.1 60 84 C 60 82.9 60.4 81.9 61.2 81.2 C 61.9 80.4 62.9 80 64 80 L 84 80 L 84 60 Z  M 4 60 C 4 58.9 4.4 57.9 5.2 57.2 C 5.9 56.4 6.9 56 8 56 C 9.1 56 10.1 56.4 10.8 57.2 C 11.6 57.9 12 58.9 12 60 L 12 80 L 32 80 C 33.1 80 34.1 80.4 34.8 81.2 C 35.6 81.9 36 82.9 36 84 C 36 85.1 35.6 86.1 34.8 86.8 C 34.1 87.6 33.1 88 32 88 L 12 88 C 9.9 88 7.8 87.2 6.3 85.7 C 4.8 84.2 4 82.1 4 80 L 4 60 Z " fill-rule="evenodd" fill="white" stroke="none"/></mask><path d=" M 32 8 C 33.1 8 34.1 8.4 34.8 9.2 C 35.6 9.9 36 10.9 36 12 C 36 13.1 35.6 14.1 34.8 14.8 C 34.1 15.6 33.1 16 32 16 L 12 16 L 12 36 C 12 37.1 11.6 38.1 10.8 38.8 C 10.1 39.6 9.1 40 8 40 C 6.9 40 5.9 39.6 5.2 38.8 C 4.4 38.1 4 37.1 4 36 L 4 16 C 4 13.9 4.8 11.8 6.3 10.3 C 7.8 8.8 9.9 8 12 8 L 32 8 Z  M 64 16 C 62.9 16 61.9 15.6 61.2 14.8 C 60.4 14.1 60 13.1 60 12 C 60 10.9 60.4 9.9 61.2 9.2 C 61.9 8.4 62.9 8 64 8 L 84 8 C 86.1 8 88.2 8.8 89.7 10.3 C 91.2 11.8 92 13.9 92 16 L 92 36 C 92 37.1 91.6 38.1 90.8 38.8 C 90.1 39.6 89.1 40 88 40 C 86.9 40 85.9 39.6 85.2 38.8 C 84.4 38.1 84 37.1 84 36 L 84 16 L 64 16 Z  M 84 60 C 84 58.9 84.4 57.9 85.2 57.2 C 85.9 56.4 86.9 56 88 56 C 89.1 56 90.1 56.4 90.8 57.2 C 91.6 57.9 92 58.9 92 60 L 92 80 C 92 82.1 91.2 84.2 89.7 85.7 C 88.2 87.2 86.1 88 84 88 L 64 88 C 62.9 88 61.9 87.6 61.2 86.8 C 60.4 86.1 60 85.1 60 84 C 60 82.9 60.4 81.9 61.2 81.2 C 61.9 80.4 62.9 80 64 80 L 84 80 L 84 60 Z  M 4 60 C 4 58.9 4.4 57.9 5.2 57.2 C 5.9 56.4 6.9 56 8 56 C 9.1 56 10.1 56.4 10.8 57.2 C 11.6 57.9 12 58.9 12 60 L 12 80 L 32 80 C 33.1 80 34.1 80.4 34.8 81.2 C 35.6 81.9 36 82.9 36 84 C 36 85.1 35.6 86.1 34.8 86.8 C 34.1 87.6 33.1 88 32 88 L 12 88 C 9.9 88 7.8 87.2 6.3 85.7 C 4.8 84.2 4 82.1 4 80 L 4 60 Z " fill-rule="evenodd" fill="none" stroke="none" stroke-width="16" mask="url(#_mask_y6ZFa1JVhjR0g46nv5fmIpV4anAG2mXj)"/></svg>
